src/pos-icons/chart-multiline.svg

<svg height="24" viewBox="0 0 24 24" width="24" xmlns="http://www.w3.org/2000/svg"><path d="m22 6.92-1.41-1.42-2.85 3.22c-2.06-2.32-4.91-3.72-8.13-3.72-2.89 0-5.54 1.16-7.61 3l1.42 1.42c1.7-1.49 3.85-2.42 6.19-2.42 2.74 0 5.09 1.26 6.77 3.24l-2.88 3.26-4-4-7.5 7.5 1.5 1.5 6-6 4 4 4.05-4.57c.75 1.35 1.25 2.9 1.45 4.57h2c-.22-2.32-.95-4.41-2.04-6.16z"/></svg>

<?xml version="1.0" encoding="UTF-8"?><!DOCTYPE svg PUBLIC "-//W3C//DTD SVG 1.1//EN" "http://www.w3.org/Graphics/SVG/1.1/DTD/svg11.dtd"><svg xmlns="http://www.w3.org/2000/svg" xmlns:xlink="http://www.w3.org/1999/xlink" version="1.1" id="mdi-chart-multiline" width="24" height="24" viewBox="0 0 24 24"><path d="M22,6.92L20.59,5.5L17.74,8.72C15.68,6.4 12.83,5 9.61,5C6.72,5 4.07,6.16 2,8L3.42,9.42C5.12,7.93 7.27,7 9.61,7C12.35,7 14.7,8.26 16.38,10.24L13.5,13.5L9.5,9.5L2,17L3.5,18.5L9.5,12.5L13.5,16.5L17.55,11.93C18.3,13.28 18.8,14.83 19,16.5H21C20.78,14.18 20.05,12.09 18.96,10.34L22,6.92Z" /></svg>
